; HEADER_BLOCK_START
; generated by Creality_Print V5.1.7.10514 on 2024-12-17 at 21:03:03
; total layer number: 240
; filament_density: 1.24,1.24,1.24,1.24
; filament_diameter: 1.75,1.75,1.75,1.75
; max_z_height: 48.00
; HEADER_BLOCK_END

; MINX = 120.00
; MINY = 134.50
; MINZ = 0.00
; MAXX = 180.00
; MAXY = 165.50
; MAXZ = 48.00

; THUMBNAIL_BLOCK_START

;
; THUMBNAIL_BLOCK_END

; THUMBNAIL_BLOCK_START

;
; THUMBNAIL_BLOCK_END

; external perimeters extrusion width = 0.42mm
; perimeters extrusion width = 0.45mm
; infill extrusion width = 0.45mm
; solid infill extrusion width = 0.42mm
; top infill extrusion width = 0.42mm
; first layer extrusion width = 0.50mm

; external perimeters extrusion width = 0.42mm
; perimeters extrusion width = 0.45mm
; infill extrusion width = 0.45mm
; solid infill extrusion width = 0.42mm
; top infill extrusion width = 0.42mm
; first layer extrusion width = 0.50mm

; external perimeters extrusion width = 0.42mm
; perimeters extrusion width = 0.45mm
; infill extrusion width = 0.45mm
; solid infill extrusion width = 0.42mm
; top infill extrusion width = 0.42mm
; first layer extrusion width = 0.50mm

; external perimeters extrusion width = 0.42mm
; perimeters extrusion width = 0.45mm
; infill extrusion width = 0.45mm
; solid infill extrusion width = 0.42mm
; top infill extrusion width = 0.42mm
; first layer extrusion width = 0.50mm

; EXECUTABLE_BLOCK_START
EXCLUDE_OBJECT_DEFINE NAME=2_船综合测试.stl_id_0_copy_0 CENTER=150,150 POLYGON=[[120,140.815],[120.002,140.753],[120.006,140.697],[120.012,140.639],[120.018,140.581],[120.028,140.523],[120.038,140.467],[120.044,140.435],[120.056,140.383],[120.08,140.295],[120.096,140.237],[120.126,140.153],[120.168,140.045],[120.184,140.009],[120.208,139.957],[120.222,139.929],[120.262,139.853],[120.278,139.825],[120.292,139.801],[120.322,139.751],[120.338,139.725],[120.37,139.677],[120.44,139.583],[120.446,139.575],[120.482,139.529],[120.52,139.485],[120.538,139.465],[120.578,139.421],[120.618,139.379],[120.684,139.317],[120.728,139.277],[120.776,139.237],[120.828,139.195],[120.838,139.187],[120.874,139.161],[120.934,139.119],[120.97,139.095],[121.044,139.051],[121.096,139.021],[121.174,138.979],[121.2,138.967],[121.252,138.943],[121.306,138.919],[121.36,138.897],[121.416,138.877],[121.47,138.859],[121.546,138.837],[121.596,138.823],[121.682,138.803],[121.71,138.797],[121.768,138.787],[121.792,138.783],[149.818,134.883],[150.054,134.851],[150.298,134.819],[150.543,134.79],[151.031,134.734],[151.105,134.726],[151.521,134.684],[151.843,134.654],[152.009,134.64],[152.333,134.614],[152.525,134.6],[152.827,134.58],[153.071,134.564],[153.621,134.536],[153.755,134.53],[153.907,134.524],[153.967,134.522],[154.097,134.518],[154.233,134.514],[154.461,134.508],[154.549,134.506],[154.881,134.5],[155.063,134.498],[155.579,134.498],[155.935,134.5],[156.369,134.508],[156.805,134.518],[156.913,134.522],[157.241,134.536],[157.321,134.54],[157.757,134.562],[158.009,134.576],[158.375,134.6],[158.557,134.614],[158.909,134.642],[159.039,134.654],[159.053,134.656],[159.833,134.778],[160.269,134.886],[160.277,134.888],[160.595,134.968],[160.813,135.026],[161.249,135.144],[161.475,135.208],[161.653,135.26],[161.897,135.332],[162.333,135.468],[162.559,135.542],[162.753,135.606],[162.783,135.616],[163.179,135.752],[163.401,135.83],[163.613,135.908],[163.813,135.982],[164.023,136.062],[164.345,136.186],[164.663,136.314],[164.873,136.4],[165.135,136.512],[165.223,136.55],[165.547,136.692],[165.875,136.84],[166.161,136.972],[166.565,137.166],[166.767,137.266],[166.967,137.366],[167.167,137.468],[167.365,137.57],[167.761,137.782],[167.959,137.888],[168.349,138.108],[168.543,138.22],[168.737,138.334],[168.931,138.448],[169.123,138.564],[169.315,138.682],[169.505,138.8],[169.697,138.92],[169.885,139.042],[170.075,139.166],[170.263,139.29],[170.451,139.416],[170.637,139.544],[170.823,139.672],[171.009,139.802],[171.193,139.932],[171.377,140.066],[171.559,140.2],[171.743,140.336],[172.105,140.61],[172.285,140.75],[172.643,141.034],[172.821,141.178],[172.997,141.324],[173.173,141.47],[173.525,141.77],[173.871,142.073],[174.043,142.227],[174.215,142.383],[174.497,142.645],[174.665,142.803],[174.831,142.961],[174.997,143.121],[175.325,143.445],[175.487,143.609],[175.647,143.773],[175.967,144.105],[176.125,144.273],[176.281,144.443],[176.437,144.613],[176.593,144.785],[176.899,145.131],[177.051,145.305],[177.201,145.483],[177.499,145.837],[177.791,146.197],[177.937,146.379],[178.081,146.563],[178.365,146.931],[178.505,147.117],[178.645,147.305],[178.783,147.493],[178.921,147.683],[179.057,147.873],[179.191,148.065],[179.325,148.257],[179.459,148.451],[179.619,148.691],[179.683,148.797],[179.713,148.851],[179.769,148.961],[179.819,149.075],[179.835,149.117],[179.857,149.175],[179.877,149.233],[179.895,149.291],[179.913,149.351],[179.929,149.413],[179.943,149.469],[179.955,149.529],[179.967,149.593],[179.975,149.651],[179.991,149.773],[179.995,149.835],[179.999,149.905],[180.001,149.965],[180.001,150.027],[179.997,150.149],[179.985,150.269],[179.977,150.331],[179.969,150.391],[179.959,150.449],[179.933,150.569],[179.917,150.631],[179.901,150.685],[179.883,150.745],[179.865,150.799],[179.843,150.861],[179.821,150.917],[179.797,150.973],[179.773,151.025],[179.745,151.085],[179.717,151.139],[179.687,151.193],[179.623,151.301],[179.589,151.353],[179.473,151.527],[179.339,151.721],[179.205,151.913],[179.071,152.105],[178.935,152.297],[178.797,152.487],[178.659,152.675],[178.521,152.863],[178.237,153.235],[178.095,153.419],[177.951,153.603],[177.659,153.967],[177.511,154.147],[177.361,154.327],[177.211,154.505],[177.059,154.683],[176.907,154.859],[176.753,155.035],[176.483,155.337],[176.325,155.509],[176.167,155.679],[176.009,155.849],[175.849,156.017],[175.687,156.185],[175.525,156.351],[175.363,156.515],[175.199,156.679],[175.035,156.841],[174.869,157.001],[174.703,157.161],[174.535,157.319],[174.367,157.475],[174.199,157.629],[174.029,157.783],[173.857,157.937],[173.685,158.089],[173.513,158.238],[173.339,158.388],[172.987,158.682],[172.811,158.826],[172.455,159.114],[172.275,159.254],[171.911,159.534],[171.729,159.672],[171.545,159.81],[171.359,159.944],[171.173,160.078],[170.987,160.212],[170.799,160.344],[170.611,160.474],[170.421,160.602],[170.231,160.73],[170.039,160.856],[169.653,161.106],[169.459,161.228],[169.067,161.468],[168.869,161.586],[168.709,161.68],[168.473,161.818],[168.273,161.934],[168.073,162.046],[167.871,162.156],[167.595,162.306],[167.395,162.412],[166.997,162.618],[166.595,162.818],[166.181,163.016],[165.987,163.106],[165.541,163.308],[165.375,163.382],[165.169,163.472],[164.955,163.562],[164.667,163.682],[164.341,163.812],[164.123,163.896],[164.003,163.942],[163.705,164.056],[163.503,164.13],[163.293,164.206],[163.071,164.284],[162.859,164.356],[162.443,164.494],[162.207,164.57],[161.979,164.64],[161.801,164.694],[161.523,164.776],[161.369,164.82],[161.143,164.884],[160.837,164.966],[160.707,165],[160.607,165.026],[160.489,165.056],[160.147,165.142],[159.843,165.218],[159.317,165.318],[159.175,165.332],[159.113,165.338],[159.051,165.344],[159.003,165.348],[158.561,165.384],[158.135,165.414],[157.689,165.44],[157.265,165.462],[157.127,165.468],[156.779,165.48],[156.565,165.486],[156.345,165.492],[155.907,165.5],[155.521,165.502],[155.177,165.502],[154.981,165.5],[154.821,165.498],[154.599,165.494],[154.515,165.492],[154.167,165.482],[153.753,165.468],[153.571,165.46],[153.407,165.452],[152.891,165.422],[152.645,165.406],[152.589,165.402],[152.343,165.384],[152.157,165.37],[151.849,165.344],[151.357,165.298],[150.935,165.254],[150.619,165.218],[150.349,165.184],[150.122,165.155],[149.961,165.134],[149.822,165.115],[121.826,161.219],[121.8,161.215],[121.742,161.205],[121.686,161.195],[121.652,161.187],[121.584,161.171],[121.546,161.161],[121.48,161.141],[121.416,161.119],[121.36,161.099],[121.252,161.055],[121.196,161.029],[121.104,160.981],[121.086,160.971],[121.044,160.947],[120.978,160.907],[120.886,160.845],[120.838,160.809],[120.8,160.779],[120.748,160.737],[120.71,160.705],[120.64,160.639],[120.598,160.597],[120.592,160.591],[120.556,160.553],[120.538,160.533],[120.48,160.465],[120.408,160.373],[120.374,160.325],[120.356,160.299],[120.338,160.271],[120.308,160.223],[120.28,160.177],[120.222,160.069],[120.192,160.005],[120.168,159.953],[120.148,159.901],[120.126,159.843],[120.108,159.791],[120.09,159.737],[120.074,159.681],[120.058,159.623],[120.056,159.615],[120.044,159.563],[120.024,159.453],[120.016,159.395],[120.008,159.323],[120.002,159.243],[120,159.207],[120,140.815]]
M73 P0 R38
M106 S0
M106 P2 S0
;TYPE:Custom
M140 S0
M104 S0 
START_PRINT EXTRUDER_TEMP=220 BED_TEMP=50
G90
G21
M83 ; use relative distances for extrusion
T2
; filament start gcode
G1 Z.2 F30000
M106 S0
;LAYER_CHANGE
;Z:0.2
;HEIGHT:0.2
;BEFORE_LAYER_CHANGE
;0.2
G92 E0

;AFTER_LAYER_CHANGE
;0.2
;_SET_FAN_SPEED_CHANGING_LAYER
SET_VELOCITY_LIMIT ACCEL=1000 ACCEL_TO_DECEL=1000
SET_VELOCITY_LIMIT SQUARE_CORNER_VELOCITY=20
G1 E-.6 F2400
G1 Z.6 F30000
G1 X131.294 Y217.205
G1 Z.6
G1 Z.2
G1 E.6 F2400
;HEIGHT:0.2
;TYPE:Prime tower
;WIDTH:0.5
G1  X165.294 Y217.205  E1.2922 F3000
G1  Y226.305  E0.3459
G1  X131.294  E1.2922
G1  Y217.205  E0.3459
G1  X165.294 
G1  Y226.305 
G1  X164.294 
;--------------------
; CP EMPTY GRID START
; wipe tower layer #1
G1  Y225.805  E0.0190
G1  X131.794  E1.2352
G1  Y225.299  E0.0192
G1  X164.794  E1.2542
G1  Y224.793  E0.0192
G1  X131.794  E1.2542
G1  Y224.286  E0.0192
G1  X164.794  E1.2542
G1  Y223.780  E0.0192
G1  X131.794  E1.2542
G1  Y223.274  E0.0192
G1  X164.794  E1.2542
G1  Y222.768  E0.0192
G1  X131.794  E1.2542
G1  Y222.261  E0.0192
G1  X164.794  E1.2542
G1  Y221.755  E0.0192
G1  X131.794  E1.2542
G1  Y221.249  E0.0192
G1  X164.794  E1.2542
G1  Y220.743  E0.0192
G1  X131.794  E1.2542
G1  Y220.236  E0.0192
G1  X164.794  E1.2542
G1  Y219.730  E0.0192
G1  X131.794  E1.2542
G1  Y219.224  E0.0192
G1  X164.794  E1.2542
G1  Y218.718  E0.0192
G1  X131.794  E1.2542
G1  Y218.211  E0.0192
G1  X164.794  E1.2542
G1  Y217.705  E0.0192
G1  X131.794  E1.2542
G1  Y217.205  E0.0190
; CP EMPTY GRID END
;------------------






G1  X130.794 
G1  Y216.705 
G1  X165.794  E1.3302
G1  Y226.805  E0.3839
G1  X130.794  E1.3302
G1  Y216.705  E0.3839
G1  X130.337 
G1  Y216.248 
G1  X166.251  E1.3650
G1  Y227.262  E0.4186
G1  X130.337  E1.3650
G1  Y216.248  E0.4186
G1  X129.880 
G1  Y215.791 
G1  X166.708  E1.3997
G1  Y227.719  E0.4534
G1  X129.880  E1.3997
G1  Y215.791  E0.4534
G1  X129.423 
G1  Y215.334 
G1  X167.165  E1.4345
G1  Y228.176  E0.4881
G1  X129.423  E1.4345
M73 P1 R38
G1  Y215.334  E0.4881
G1  X128.966 
G1  Y214.877 
G1  X167.622  E1.4692
G1  Y228.633  E0.5228
G1  X128.966  E1.4692
G1  Y214.877  E0.5228
G1  X128.509 
G1  Y214.420 
G1  X168.079  E1.5039
G1  Y229.090  E0.5576
G1  X128.509  E1.5039
G1  Y214.420  E0.5576
G1  X128.052 
G1  Y213.963 
G1  X168.536  E1.5387
G1  Y229.547  E0.5923
G1  X128.052  E1.5387
G1  Y213.963  E0.5923
G1  X127.594 
G1  Y213.505 
G1  X168.994  E1.5734
G1  Y230.005  E0.6271
G1  X127.594  E1.5734
G1  Y213.505  E0.6271
G1  X127.137 Y213.048  
G1  X169.451  E1.6082
G1  Y230.462  E0.6618
G1  X127.137  E1.6082
G1  Y213.048  E0.6618
G1  X126.680 Y212.591  
G1  X169.908  E1.6429
G1  Y230.919  E0.6966
G1  X126.680  E1.6429
G1  Y212.591  E0.6966
G1  X126.223 Y212.134  
G1  X170.365  E1.6777
G1  Y231.376  E0.7313
G1  X126.223  E1.6777
G1  Y212.134  E0.7313
G1  X125.766 Y211.677  
G1  X170.822  E1.7124
G1  Y231.833  E0.7660
G1  X125.766  E1.7124
G1  Y211.677  E0.7660
G1  X125.309 Y211.220  
G1  X171.279  E1.7471
G1  Y232.290  E0.8008
G1  X125.309  E1.7471
G1  Y211.220  E0.8008
G1  X124.852 Y210.763  
G1  X171.736  E1.7819
M73 P2 R38
G1  Y232.747  E0.8355
G1  X124.852  E1.7819
G1  Y210.763  E0.8355
G1  X124.395 Y210.306  
G1  X172.193  E1.8166
G1  Y233.204  E0.8703
G1  X124.395  E1.8166
G1  Y210.306  E0.8703

; printing object 2_船综合测试.stl id:0 copy 0
G1 E-.6 F2400
;WIPE_START
G1 F3600
G1 X124.395 Y212.306
;WIPE_END
EXCLUDE_OBJECT_START NAME=2_船综合测试.stl_id_0_copy_0
G1 X124.846 Y204.687 Z.6 F30000
G1 X127.421 Y161.201 Z.6
G1 Z.2
G1 E.6 F2400
;TYPE:Brim
;WIDTH:0.5
;HEIGHT:0.2
G1 F3000
G1 X125.506 Y161.083 E.06925
G1 X125.012 Y161.034 E.01793
G1 X124.343 Y160.903 E.02462
G1 X123.742 Y160.72 E.02269
G1 X123.293 Y160.537 E.0175
G1 X122.818 Y160.297 E.01924
G1 X122.214 Y159.909 E.02592
G1 X121.834 Y159.607 E.01752
G1 X121.315 Y159.104 E.02609
G1 X120.905 Y158.608 E.02323
G1 X120.623 Y158.189 E.01823
G1 X120.427 Y157.851 E.01413
G1 X120.231 Y157.45 E.0161
G1 X120.056 Y157.004 E.0173
G1 X119.819 Y156.163 E.03155
G1 X119.708 Y155.385 E.02837
G1 X119.687 Y154.877 E.01838
G1 X119.686 Y145.137 E.35167
G1 X119.714 Y144.549 E.02125
G1 X119.773 Y144.085 E.01689
G1 X119.84 Y143.735 E.01286
G1 X120.045 Y143.023 E.02676
G1 X120.282 Y142.439 E.02274
G1 X120.606 Y141.835 E.02475
G1 X120.915 Y141.377 E.01995
G1 X121.19 Y141.032 E.01592
G1 X121.433 Y140.768 E.01296
G1 X121.787 Y140.431 E.01763
G1 X122.328 Y140.008 E.0248
G1 X122.707 Y139.765 E.01626
G1 X123.103 Y139.551 E.01627
G1 X123.653 Y139.31 E.02169
G1 X124.105 Y139.159 E.01719
G1 X124.485 Y139.059 E.0142
G1 X124.857 Y138.987 E.01369
G1 X125.318 Y138.928 E.01676
G1 X148.893 Y137.493 E.85279
G1 X149.578 Y137.464 E.02473
G1 X150.294 Y137.459 E.02587
G1 X151.323 Y137.5 E.03717
G1 X152.615 Y137.628 E.04687
G1 X153.673 Y137.8 E.03871
G1 X154.415 Y137.957 E.02739
G1 X155.097 Y138.129 E.02541
G1 X156.368 Y138.519 E.04799
G1 X157.564 Y138.976 E.04624
G1 X158.756 Y139.529 E.04742
G1 X159.8 Y140.097 E.04293
G1 X160.81 Y140.728 E.04299
G1 X161.912 Y141.524 E.04908
G1 X162.848 Y142.299 E.04386
G1 X163.827 Y143.229 E.04875
G1 X164.18 Y143.597 E.01845
G1 X164.834 Y144.334 E.03555
G1 X165.515 Y145.192 E.03957
G1 X166.238 Y146.223 E.04547
G1 X166.624 Y146.841 E.02629
G1 X166.9 Y147.328 E.02023
G1 X167.122 Y147.806 E.01902
G1 X167.268 Y148.199 E.01512
G1 X167.421 Y148.756 E.02087
G1 X167.528 Y149.426 E.02449
G1 X167.556 Y150.076 E.0235
G1 X167.502 Y150.795 E.02602
G1 X167.394 Y151.355 E.0206
G1 X167.182 Y152.037 E.02578
G1 X166.934 Y152.6 E.02221
G1 X166.489 Y153.378 E.03239
G1 X165.921 Y154.245 E.03742
G1 X165.27 Y155.128 E.0396
G1 X164.761 Y155.749 E.02898
G1 X163.985 Y156.605 E.04171
G1 X163.295 Y157.29 E.03511
G1 X162.315 Y158.15 E.04708
G1 X161.577 Y158.728 E.03386
G1 X160.866 Y159.231 E.03144
G1 X160.264 Y159.621 E.0259
G1 X159.436 Y160.109 E.0347
G1 X158.666 Y160.514 E.03139
G1 X158.091 Y160.788 E.02301
G1 X157.323 Y161.121 E.03021
G1 X156.529 Y161.422 E.03066
G1 X155.348 Y161.8 E.04478
G1 X154.554 Y162.007 E.02962
G1 X153.64 Y162.203 E.03377
G1 X152.904 Y162.328 E.02693
G1 X152.17 Y162.423 E.02674
G1 X151.387 Y162.494 E.0284
G1 X150.459 Y162.535 E.03355
G1 X149.777 Y162.537 E.02461
G1 X148.874 Y162.503 E.03261
G1 X127.461 Y161.204 E.77459
G1 X127.488 Y160.747 F30000
G1 F3000
G1 X127.477 Y160.747 E.00041
G1 X125.546 Y160.628 E.06987
G1 X125.085 Y160.582 E.0167
G1 X124.461 Y160.461 E.02297
G1 X123.901 Y160.291 E.02112
G1 X123.478 Y160.119 E.0165
G1 X123.039 Y159.896 E.01777
G1 X122.486 Y159.54 E.02374
G1 X122.131 Y159.258 E.01637
G1 X121.657 Y158.799 E.02384
G1 X121.268 Y158.328 E.02203
G1 X121.013 Y157.951 E.01644
G1 X120.829 Y157.631 E.01332
G1 X120.648 Y157.26 E.01491
G1 X120.492 Y156.865 E.01536
G1 X120.27 Y156.077 E.02954
G1 X120.164 Y155.336 E.02703
G1 X120.144 Y154.864 E.01707
G1 X120.144 Y145.15 E.35072
G1 X120.169 Y144.594 E.02013
G1 X120.283 Y143.852 E.02708
G1 X120.476 Y143.179 E.02528
G1 X120.7 Y142.627 E.02151
G1 X120.994 Y142.078 E.02252
G1 X121.289 Y141.64 E.01905
G1 X121.752 Y141.095 E.02581
G1 X122.091 Y140.774 E.01686
G1 X122.598 Y140.378 E.02323
G1 X122.944 Y140.156 E.01483
G1 X123.299 Y139.964 E.01457
G1 X123.823 Y139.735 E.02068
G1 X124.231 Y139.599 E.01551
G1 X124.591 Y139.504 E.01345
G1 X124.934 Y139.438 E.01262
G1 X125.365 Y139.383 E.01567
G1 X148.916 Y137.95 E.8519
G1 X150.29 Y137.916 E.04963
G1 X151.295 Y137.956 E.03633
G1 X152.56 Y138.082 E.04587
G1 X153.592 Y138.25 E.03777
