; HEADER_BLOCK_START
; generated by Creality_Print V5.1.7.10514 on 2024-12-17 at 21:01:02
; total layer number: 240
; filament_density: 1.24,1.24,1.24,1.24
; filament_diameter: 1.75,1.75,1.75,1.75
; max_z_height: 48.00
; HEADER_BLOCK_END

; MINX = 80.00
; MINY = 94.50
; MINZ = 0.00
; MAXX = 140.00
; MAXY = 125.50
; MAXZ = 48.00

; THUMBNAIL_BLOCK_START

;
; THUMBNAIL_BLOCK_END

; THUMBNAIL_BLOCK_START

;
; THUMBNAIL_BLOCK_END

; external perimeters extrusion width = 0.42mm
; perimeters extrusion width = 0.45mm
; infill extrusion width = 0.45mm
; solid infill extrusion width = 0.42mm
; top infill extrusion width = 0.42mm
; first layer extrusion width = 0.50mm

; external perimeters extrusion width = 0.42mm
; perimeters extrusion width = 0.45mm
; infill extrusion width = 0.45mm
; solid infill extrusion width = 0.42mm
; top infill extrusion width = 0.42mm
; first layer extrusion width = 0.50mm

; external perimeters extrusion width = 0.42mm
; perimeters extrusion width = 0.45mm
; infill extrusion width = 0.45mm
; solid infill extrusion width = 0.42mm
; top infill extrusion width = 0.42mm
; first layer extrusion width = 0.50mm

; external perimeters extrusion width = 0.42mm
; perimeters extrusion width = 0.45mm
; infill extrusion width = 0.45mm
; solid infill extrusion width = 0.42mm
; top infill extrusion width = 0.42mm
; first layer extrusion width = 0.50mm

; EXECUTABLE_BLOCK_START
EXCLUDE_OBJECT_DEFINE NAME=2_船综合测试.stl_id_0_copy_0 CENTER=110,110 POLYGON=[[79.9995,100.815],[80.0015,100.753],[80.0055,100.697],[80.0115,100.639],[80.0175,100.581],[80.0275,100.523],[80.0375,100.467],[80.0435,100.435],[80.0555,100.383],[80.0795,100.295],[80.0955,100.237],[80.1255,100.153],[80.1675,100.045],[80.1835,100.009],[80.2075,99.957],[80.2215,99.929],[80.2615,99.853],[80.2775,99.825],[80.2915,99.801],[80.3215,99.751],[80.3375,99.725],[80.3695,99.677],[80.4395,99.583],[80.4455,99.575],[80.4815,99.529],[80.5195,99.485],[80.5375,99.465],[80.5775,99.421],[80.6175,99.379],[80.6835,99.317],[80.7275,99.277],[80.7755,99.237],[80.8275,99.195],[80.8375,99.187],[80.8735,99.161],[80.9335,99.119],[80.9695,99.095],[81.0435,99.051],[81.0955,99.021],[81.1735,98.979],[81.1995,98.967],[81.2515,98.943],[81.3055,98.919],[81.3595,98.897],[81.4155,98.877],[81.4695,98.859],[81.5455,98.837],[81.5955,98.823],[81.6815,98.803],[81.7095,98.797],[81.7675,98.787],[81.7915,98.783],[109.817,94.883],[110.053,94.851],[110.297,94.819],[110.542,94.79],[111.03,94.734],[111.104,94.726],[111.52,94.684],[111.842,94.654],[112.008,94.64],[112.332,94.614],[112.524,94.6],[112.826,94.58],[113.07,94.564],[113.62,94.536],[113.754,94.53],[113.906,94.524],[113.966,94.522],[114.096,94.518],[114.232,94.514],[114.46,94.508],[114.548,94.506],[114.88,94.5],[115.062,94.498],[115.578,94.498],[115.934,94.5],[116.368,94.508],[116.804,94.518],[116.912,94.522],[117.24,94.536],[117.32,94.54],[117.756,94.562],[118.008,94.576],[118.374,94.6],[118.556,94.614],[118.908,94.642],[119.038,94.654],[119.052,94.656],[119.832,94.778],[120.268,94.886],[120.276,94.888],[120.594,94.968],[120.813,95.026],[121.248,95.144],[121.474,95.208],[121.652,95.26],[121.896,95.332],[122.332,95.468],[122.558,95.542],[122.752,95.606],[122.782,95.616],[123.178,95.752],[123.4,95.83],[123.612,95.908],[123.813,95.982],[124.022,96.062],[124.344,96.186],[124.662,96.314],[124.872,96.4],[125.134,96.512],[125.222,96.55],[125.546,96.692],[125.874,96.84],[126.16,96.972],[126.564,97.166],[126.767,97.266],[126.966,97.366],[127.166,97.468],[127.365,97.57],[127.761,97.782],[127.958,97.888],[128.348,98.108],[128.542,98.22],[128.736,98.334],[128.93,98.448],[129.123,98.564],[129.314,98.682],[129.505,98.8],[129.696,98.92],[129.885,99.042],[130.075,99.166],[130.262,99.29],[130.451,99.416],[130.636,99.544],[130.823,99.672],[131.008,99.802],[131.192,99.932],[131.376,100.066],[131.559,100.2],[131.742,100.336],[132.104,100.61],[132.284,100.75],[132.643,101.034],[132.82,101.178],[132.997,101.324],[133.172,101.47],[133.525,101.77],[133.87,102.073],[134.042,102.227],[134.214,102.383],[134.496,102.645],[134.665,102.803],[134.83,102.961],[134.996,103.121],[135.324,103.445],[135.486,103.609],[135.646,103.773],[135.966,104.105],[136.124,104.273],[136.28,104.443],[136.436,104.613],[136.593,104.785],[136.898,105.131],[137.05,105.305],[137.201,105.483],[137.499,105.837],[137.79,106.197],[137.936,106.379],[138.08,106.563],[138.364,106.931],[138.504,107.117],[138.644,107.305],[138.782,107.493],[138.92,107.683],[139.056,107.873],[139.19,108.065],[139.324,108.257],[139.458,108.451],[139.618,108.691],[139.683,108.797],[139.712,108.851],[139.768,108.961],[139.819,109.075],[139.834,109.117],[139.856,109.175],[139.876,109.233],[139.894,109.291],[139.912,109.351],[139.928,109.413],[139.942,109.469],[139.954,109.529],[139.966,109.593],[139.975,109.651],[139.99,109.773],[139.994,109.835],[139.999,109.905],[140,109.965],[140,110.027],[139.996,110.149],[139.984,110.269],[139.976,110.331],[139.968,110.391],[139.958,110.449],[139.933,110.569],[139.916,110.631],[139.9,110.685],[139.882,110.745],[139.864,110.799],[139.843,110.861],[139.82,110.917],[139.796,110.973],[139.772,111.025],[139.744,111.085],[139.716,111.139],[139.686,111.193],[139.622,111.301],[139.588,111.353],[139.472,111.527],[139.338,111.721],[139.204,111.913],[139.07,112.105],[138.934,112.297],[138.796,112.487],[138.659,112.675],[138.52,112.863],[138.236,113.235],[138.094,113.419],[137.951,113.603],[137.659,113.967],[137.51,114.147],[137.361,114.327],[137.21,114.505],[137.058,114.683],[136.906,114.859],[136.752,115.035],[136.482,115.337],[136.324,115.509],[136.166,115.679],[136.008,115.849],[135.849,116.017],[135.686,116.185],[135.524,116.351],[135.362,116.515],[135.198,116.679],[135.034,116.841],[134.868,117.001],[134.702,117.161],[134.534,117.319],[134.366,117.475],[134.198,117.629],[134.028,117.783],[133.856,117.937],[133.684,118.089],[133.512,118.238],[133.338,118.388],[132.986,118.682],[132.81,118.826],[132.455,119.114],[132.275,119.254],[131.91,119.534],[131.728,119.672],[131.545,119.81],[131.359,119.944],[131.172,120.078],[130.986,120.212],[130.798,120.344],[130.61,120.474],[130.421,120.602],[130.23,120.73],[130.039,120.856],[129.652,121.106],[129.458,121.228],[129.067,121.468],[128.868,121.586],[128.708,121.68],[128.472,121.818],[128.272,121.934],[128.073,122.046],[127.87,122.156],[127.595,122.306],[127.394,122.412],[126.997,122.618],[126.595,122.818],[126.18,123.016],[125.986,123.106],[125.54,123.308],[125.374,123.382],[125.168,123.472],[124.954,123.562],[124.666,123.682],[124.34,123.812],[124.122,123.896],[124.002,123.942],[123.704,124.056],[123.502,124.13],[123.292,124.206],[123.07,124.284],[122.858,124.356],[122.442,124.494],[122.206,124.57],[121.978,124.64],[121.8,124.694],[121.522,124.776],[121.368,124.82],[121.142,124.884],[120.836,124.966],[120.706,125],[120.606,125.026],[120.488,125.056],[120.146,125.142],[119.842,125.218],[119.316,125.318],[119.174,125.332],[119.112,125.338],[119.05,125.344],[119.002,125.348],[118.56,125.384],[118.134,125.414],[117.688,125.44],[117.264,125.462],[117.126,125.468],[116.778,125.48],[116.564,125.486],[116.344,125.492],[115.906,125.5],[115.52,125.502],[115.176,125.502],[114.98,125.5],[114.82,125.498],[114.598,125.494],[114.514,125.492],[114.166,125.482],[113.752,125.468],[113.57,125.46],[113.406,125.452],[112.89,125.422],[112.644,125.406],[112.588,125.402],[112.342,125.384],[112.156,125.37],[111.848,125.344],[111.356,125.298],[110.934,125.254],[110.618,125.218],[110.348,125.184],[110.121,125.155],[109.96,125.134],[109.821,125.115],[81.8255,121.219],[81.7995,121.215],[81.7415,121.205],[81.6855,121.195],[81.6515,121.187],[81.5835,121.171],[81.5455,121.161],[81.4795,121.141],[81.4155,121.119],[81.3595,121.099],[81.2515,121.055],[81.1955,121.029],[81.1035,120.981],[81.0855,120.971],[81.0435,120.947],[80.9775,120.907],[80.8855,120.845],[80.8375,120.809],[80.7995,120.779],[80.7475,120.737],[80.7095,120.705],[80.6395,120.639],[80.5975,120.597],[80.5915,120.591],[80.5555,120.553],[80.5375,120.533],[80.4795,120.465],[80.4075,120.373],[80.3735,120.325],[80.3555,120.299],[80.3375,120.271],[80.3075,120.223],[80.2795,120.177],[80.2215,120.069],[80.1915,120.005],[80.1675,119.953],[80.1475,119.901],[80.1255,119.843],[80.1075,119.791],[80.0895,119.737],[80.0735,119.681],[80.0575,119.623],[80.0555,119.615],[80.0435,119.563],[80.0235,119.453],[80.0155,119.395],[80.0075,119.323],[80.0015,119.243],[79.9995,119.207],[79.9995,100.815]]
M73 P0 R41
M106 S0
M106 P2 S0
;TYPE:Custom
M140 S0
M104 S0 
START_PRINT EXTRUDER_TEMP=220 BED_TEMP=50
T2
M204 S2000
G1 Z3 F600
M83
G92 E0
G1 Z1 F600
G90
G21
M83 ; use relative distances for extrusion
G2 Z0.4 I0.86 J0.86 P1 F10000 ; spiral lift a little from second lift
G1 X42 Y180 F30000
G1 Z0 F600
;_FORCE_RESUME_FAN_SPEED
T2
; filament start gcode
 
M104 S220


G1 Z.2 F30000
M106 S0
;LAYER_CHANGE
;Z:0.2
;HEIGHT:0.2
;BEFORE_LAYER_CHANGE
;0.2
G92 E0

;AFTER_LAYER_CHANGE
;0.2
;_SET_FAN_SPEED_CHANGING_LAYER
SET_VELOCITY_LIMIT ACCEL=1000 ACCEL_TO_DECEL=1000
SET_VELOCITY_LIMIT SQUARE_CORNER_VELOCITY=20
G1 E-.8 F2400
G1 Z.6 F30000
G1 X81.085 Y159.762
G1 Z.6
G1 Z.2
G1 E.8 F2400
;HEIGHT:0.2
;TYPE:Prime tower
;WIDTH:0.5
G1  X140.085 Y159.762  E2.2424 F3600
G1  Y164.662  E0.1862
G1  X81.085  E2.2424
G1  Y159.762  E0.1862
G1  X140.085 
G1  Y164.662 
G1  X139.085 
;--------------------
; CP EMPTY GRID START
; wipe tower layer #1
G1  Y164.162  E0.0190
G1  X81.585  E2.1854
G1  Y163.605  E0.0212
G1  X139.585  E2.2044
G1  Y163.048  E0.0212
G1  X81.585  E2.2044
G1  Y162.491  E0.0212
G1  X139.585  E2.2044
G1  Y161.933  E0.0212
G1  X81.585  E2.2044
G1  Y161.376  E0.0212
G1  X139.585  E2.2044
G1  Y160.819  E0.0212
G1  X81.585  E2.2044
G1  Y160.262  E0.0212
G1  X139.585  E2.2044
G1  Y159.762  E0.0190
; CP EMPTY GRID END
;------------------






G1  X140.585 
G1  Y159.262 
G1  Y165.162  E0.2242
G1  X80.585  E2.2804
G1  Y159.262  E0.2242
G1  X140.585  E2.2804
G1  X141.042 
G1  Y158.805 
G1  Y165.619  E0.2590
G1  X80.128  E2.3151
G1  Y158.805  E0.2590
G1  X141.042  E2.3151
G1  X141.499 
G1  Y158.348 
G1  Y166.076  E0.2937
G1  X79.671  E2.3499
G1  Y158.348  E0.2937
G1  X141.499  E2.3499
G1  X141.956 
G1  Y157.891 
G1  Y166.533  E0.3285
G1  X79.214  E2.3846
G1  Y157.891  E0.3285
G1  X141.956  E2.3846
G1  X142.413 
G1  Y157.434 
G1  Y166.990  E0.3632
G1  X78.757  E2.4194
G1  Y157.434  E0.3632
G1  X142.413  E2.4194
M73 P1 R41
G1  X142.870 
G1  Y156.977 
G1  Y167.447  E0.3980
G1  X78.300  E2.4541
G1  Y156.977  E0.3980
G1  X142.870  E2.4541
M73 P1 R40
G1  X143.327 
G1  Y156.520 
G1  Y167.904  E0.4327
G1  X77.843  E2.4888
G1  Y156.520  E0.4327
G1  X143.327  E2.4888
G1  X143.785 
G1  Y156.062 
G1  Y168.362  E0.4674
G1  X77.385  E2.5236
G1  Y156.062  E0.4674
G1  X143.785  E2.5236
G1  X144.242 Y155.605  
G1  Y168.819  E0.5022
G1  X76.928  E2.5583
G1  Y155.605  E0.5022
G1  X144.242  E2.5583
G1  X144.699 Y155.148  
G1  Y169.276  E0.5369
G1  X76.471  E2.5931
G1  Y155.148  E0.5369
G1  X144.699  E2.5931
G1  X145.156 Y154.691  
G1  Y169.733  E0.5717
G1  X76.014  E2.6278
G1  Y154.691  E0.5717
G1  X145.156  E2.6278
G1  X145.613 Y154.234  
G1  Y170.190  E0.6064
G1  X75.557  E2.6626
G1  Y154.234  E0.6064
G1  X145.613  E2.6626
G1  X146.070 Y153.777  
G1  Y170.647  E0.6412
G1  X75.100  E2.6973
G1  Y153.777  E0.6412
G1  X146.070  E2.6973
G1  X146.527 Y153.320  
G1  Y171.104  E0.6759
G1  X74.643  E2.7321
M73 P2 R40
G1  Y153.320  E0.6759
G1  X146.527  E2.7321
G1  X146.984 Y152.863  
G1  Y171.561  E0.7107
G1  X74.186  E2.7668
G1  Y152.863  E0.7107
G1  X146.984  E2.7668

G1 E-.56 F2400
;WIPE_START
G1 F3600
G1 X145.984 Y152.863 E-.24
;WIPE_END
EXCLUDE_OBJECT_START NAME=2_船综合测试.stl_id_0_copy_0
G1 X141.545 Y146.654 Z.6 F30000
G1 X121.576 Y118.728 Z.6
G1 Z.2
G1 E.8 F2400
;TYPE:Brim
;WIDTH:0.5
;HEIGHT:0.2
G1 F3600
G1 X120.865 Y119.231 E.03144
G1 X120.264 Y119.621 E.0259
G1 X119.435 Y120.109 E.0347
G1 X118.666 Y120.514 E.03139
G1 X118.091 Y120.788 E.02301
G1 X117.323 Y121.121 E.03021
G1 X116.529 Y121.422 E.03066
G1 X115.348 Y121.8 E.04478
G1 X114.554 Y122.007 E.02962
G1 X113.639 Y122.203 E.03377
G1 X112.904 Y122.328 E.02693
G1 X112.17 Y122.423 E.02674
G1 X111.386 Y122.494 E.0284
G1 X110.458 Y122.535 E.03355
G1 X109.776 Y122.537 E.02461
G1 X108.874 Y122.503 E.03261
G1 X87.448 Y121.203 E.77502
G1 X85.506 Y121.083 E.07026
G1 X85.012 Y121.034 E.01793
G1 X84.343 Y120.903 E.02462
G1 X83.742 Y120.72 E.02269
G1 X83.293 Y120.537 E.0175
G1 X82.817 Y120.297 E.01924
G1 X82.213 Y119.909 E.02592
G1 X81.833 Y119.607 E.01752
G1 X81.315 Y119.104 E.02609
G1 X80.905 Y118.608 E.02323
G1 X80.622 Y118.189 E.01823
G1 X80.427 Y117.851 E.01413
G1 X80.231 Y117.45 E.0161
G1 X80.055 Y117.004 E.0173
G1 X79.819 Y116.163 E.03155
G1 X79.708 Y115.385 E.02837
G1 X79.686 Y114.877 E.01838
G1 X79.686 Y105.137 E.35167
G1 X79.713 Y104.549 E.02125
G1 X79.772 Y104.085 E.01689
G1 X79.839 Y103.735 E.01286
G1 X80.044 Y103.023 E.02676
G1 X80.281 Y102.439 E.02274
G1 X80.605 Y101.835 E.02475
G1 X80.914 Y101.377 E.01995
G1 X81.19 Y101.032 E.01592
G1 X81.432 Y100.768 E.01296
G1 X81.786 Y100.431 E.01763
G1 X82.327 Y100.008 E.0248
G1 X82.706 Y99.765 E.01626
G1 X83.103 Y99.551 E.01627
G1 X83.653 Y99.31 E.02169
G1 X84.104 Y99.159 E.01719
G1 X84.485 Y99.059 E.0142
G1 X84.857 Y98.987 E.01369
G1 X85.317 Y98.928 E.01676
G1 X108.893 Y97.493 E.85279
G1 X109.577 Y97.464 E.02473
G1 X110.294 Y97.459 E.02587
G1 X111.322 Y97.5 E.03717
G1 X112.614 Y97.628 E.04687
G1 X113.672 Y97.8 E.03871
G1 X114.414 Y97.957 E.02739
G1 X115.097 Y98.129 E.02541
G1 X116.367 Y98.519 E.04799
G1 X117.564 Y98.976 E.04624
G1 X118.755 Y99.529 E.04742
G1 X119.8 Y100.097 E.04293
G1 X120.809 Y100.728 E.04299
G1 X121.911 Y101.524 E.04908
G1 X122.847 Y102.299 E.04386
G1 X123.826 Y103.229 E.04875
G1 X124.18 Y103.597 E.01845
G1 X124.834 Y104.334 E.03555
G1 X125.515 Y105.192 E.03957
G1 X126.238 Y106.223 E.04547
G1 X126.624 Y106.841 E.02629
G1 X126.899 Y107.328 E.02023
G1 X127.121 Y107.806 E.01902
G1 X127.267 Y108.199 E.01512
G1 X127.42 Y108.756 E.02087
G1 X127.528 Y109.426 E.02449
G1 X127.555 Y110.076 E.0235
G1 X127.501 Y110.795 E.02602
G1 X127.393 Y111.355 E.0206
G1 X127.181 Y112.037 E.02578
G1 X126.934 Y112.6 E.02221
G1 X126.488 Y113.378 E.03239
G1 X125.92 Y114.245 E.03742
G1 X125.269 Y115.128 E.0396
G1 X124.76 Y115.749 E.02898
G1 X123.985 Y116.605 E.04171
G1 X123.294 Y117.29 E.03511
G1 X122.315 Y118.15 E.04708
G1 X121.608 Y118.703 E.03241
G1 X121.326 Y118.343 F30000
G1 F3600
G1 X121.306 Y118.359 E.00092
G1 X120.611 Y118.851 E.03074
G1 X120.021 Y119.234 E.02542
G1 X119.215 Y119.708 E.03373
G1 X118.463 Y120.104 E.03069
G1 X117.904 Y120.371 E.02239
G1 X117.154 Y120.696 E.02951
G1 X116.382 Y120.989 E.02982
G1 X115.224 Y121.36 E.0439
G1 X114.445 Y121.563 E.02905
G1 X113.556 Y121.754 E.03282
G1 X112.834 Y121.876 E.02646
G1 X112.117 Y121.969 E.0261
G1 X111.353 Y122.038 E.02771
G1 X110.45 Y122.077 E.03262
G1 X109.787 Y122.079 E.02394
G1 X108.895 Y122.047 E.03224
G1 X87.476 Y120.747 E.77474
G1 X85.545 Y120.628 E.06987
G1 X85.085 Y120.582 E.0167
G1 X84.46 Y120.461 E.02297
G1 X83.901 Y120.291 E.02112
G1 X83.477 Y120.119 E.0165
G1 X83.038 Y119.896 E.01777
G1 X82.486 Y119.54 E.02374
G1 X82.13 Y119.258 E.01637
G1 X81.656 Y118.799 E.02384
G1 X81.268 Y118.328 E.02203
G1 X81.013 Y117.951 E.01644
G1 X80.828 Y117.631 E.01332
G1 X80.647 Y117.26 E.01491
G1 X80.491 Y116.865 E.01536
G1 X80.269 Y116.077 E.02954
G1 X80.163 Y115.336 E.02703
G1 X80.143 Y114.864 E.01707
G1 X80.143 Y105.15 E.35072
G1 X80.169 Y104.594 E.02013
G1 X80.282 Y103.852 E.02708
G1 X80.475 Y103.179 E.02528
G1 X80.699 Y102.627 E.02151
G1 X80.994 Y102.078 E.02252
G1 X81.289 Y101.64 E.01905
G1 X81.752 Y101.095 E.02581
G1 X82.09 Y100.774 E.01686
G1 X82.598 Y100.378 E.02323
G1 X82.943 Y100.156 E.01483
G1 X83.298 Y99.964 E.01457
G1 X83.823 Y99.735 E.02068
G1 X84.23 Y99.599 E.01551
G1 X84.591 Y99.504 E.01345
G1 X84.934 Y99.438 E.01262
G1 X85.364 Y99.383 E.01567
G1 X108.915 Y97.95 E.8519
G1 X110.289 Y97.916 E.04963
G1 X111.295 Y97.956 E.03633
G1 X112.559 Y98.082 E.04587
G1 X113.592 Y98.25 E.03777
G1 X114.309 Y98.402 E.02648
